svgs/light/vial.svg

<svg xmlns="http://www.w3.org/2000/svg" viewBox="0 0 512 512"><!--! Font Awesome Pro 6.3.0 by @fontawesome - https://fontawesome.com License - https://fontawesome.com/license (Commercial License) Copyright 2023 Fonticons, Inc. --><path d="M412.7 199.2L355.8 256H154.9l157.4-157.2c6.256-6.246 6.258-16.38 .0078-22.63c-6.246-6.246-16.37-6.25-22.62-.0078l-256.8 256.4c-38.75 38.75-45.13 102-9.375 143.5C44.08 500 72.76 512 101.5 512h.4473c26.38 0 52.75-10 72.88-30.12l260.5-260c6.26-6.246 6.264-16.38 .0117-22.64C429.1 192.1 418.1 192.1 412.7 199.2zM152.2 459.2C138.8 472.6 120.1 480 101.5 480c-20.59 0-40.15-9.014-53.68-24.76c-23.93-27.78-20.53-71.7 7.744-99.97L122.9 288h200.9L152.2 459.2zM507.3 180.7l-176-176C328.2 1.562 324.1 0 320 0s-8.188 1.562-11.31 4.688c-6.25 6.25-6.25 16.38 0 22.62l176 176C487.8 206.4 491.9 208 496 208s8.188-1.562 11.31-4.688C513.6 197.1 513.6 186.9 507.3 180.7z"/></svg>

<svg xmlns="http://www.w3.org/2000/svg" viewBox="0 0 512 512"><!-- Font Awesome Pro 6.0.0-alpha2 by @fontawesome - https://fontawesome.com License - https://fontawesome.com/license (Commercial License) --><path d="M412.723 199.203L355.819 256H154.946L312.317 98.832C318.572 92.586 318.574 82.449 312.324 76.197H312.322C306.076 69.951 295.951 69.947 289.701 76.189L32.936 332.625C-5.814 371.375 -12.189 434.625 23.561 476.125C44.078 500 72.764 512 101.488 512H101.936C128.311 512 154.686 502 174.811 481.875L435.328 221.852C441.588 215.605 441.592 205.467 435.34 199.215C429.096 192.971 418.975 192.965 412.723 199.203ZM152.184 459.248C138.801 472.631 120.955 480 101.488 480C80.895 480 61.338 470.986 47.805 455.24C23.871 427.457 27.279 383.537 55.549 355.268L122.904 288H323.758L152.184 459.248ZM507.313 180.688L331.313 4.688C328.188 1.562 324.094 0 320 0S311.813 1.562 308.688 4.688C302.438 10.938 302.438 21.063 308.688 27.312L484.688 203.312C487.813 206.438 491.906 208 496 208S504.188 206.438 507.313 203.312C513.563 197.062 513.563 186.938 507.313 180.688Z"/></svg>
